d1 $ sound "[loop]"
   |+| gain "1.2"

d1 $ every 2 (spin 2) $ sound "[loop]"
   |+| gain "1.2"

d1 $ every 2 (spin 2) $ sound "[loop]"
   |+| gain "1.2"
   |+| (slow 4 $ crush (scale 0.5 5 sawwave1))
